X:1
T:The Canaan Land of Perfect Love
T:Henry Lake Gilmour
T:The Canaan Land of Perfect Love
T:Public Domain
T:Public Domain
T:Public Domain
C:Henry Lake Gilmour
Z:Public Domain
%%score ( 1 2 ) ( 3 4 )
L:1/8
M:3/4
K:Ab
V:1 treble 
V:2 treble 
V:3 bass 
V:4 bass 
V:1
 E2 | [EA]>[EA] [EA]2 [Ec]2 | [FB]>[DF] [DF]2 [DA]2 | [DG]>[DF] [DE]2 [CA]2 | %4
w: 1.~A|ly land mine eyes|be- hold, With bount-|eous fruit- age rich-|
w: 2.~What|I hear of gi-|ants strong, And ci-|ties walled that rise|
w: 3.~As|I go new views|I gain, Far reach-|ing fields, and mount-|
 [EG]>[=DA] [_DB]2 [DE]2 | [CA]>[EA] [EA]2 [Ec]2 | [DB]>[DF] [DF]2 [FA]2 | [EG]>[EA] [EB]2 [Gd]2 | %8
w: ly blest; With pas-|tures green, and wa-|ters still, Where wea-|ry hearts may sweet-|
w: to Heav’n; My heav’n-|ly Josh- ua still|leads on, His might-|y strength to me|
w: ains grand; My soul|ex- ults in fu-|ture joys Which wait|me in this Ca-|
 [Gc]>[GB] [EA]2 (A_G) | [Fd]>[Fd] [Fd]2 [FA]2 | [Ec]>[Ec] [Ec]2 [Ae]2 | [Ge]>[GB] [GB]2 [EG]2 | %12
w: ly rest; The wild- *|ness left far be-|hind, With ea- ger|heart I press a-|
w: is giv’n; In ar- *|bright with sword di-|vine And faith that|o- ver- com- eth|
w: naan land. No lack *|know, since He doth|lead In vales with|milk and hon- ey|
 [=DG]>[DF] E2 E2 | [Ec]>[DB] [CA]2 [EA]2 | [Ed]>[Ec] [EB]2 [EB]2 | [Ee]>[Ee] [_Ge]3 [Fd] | %16
w: head, For God hath|un- to me Each|foot of land my|feet shall tread. *|
w: all, My Cap- tain’s|I o- bey, While|Jer- i- chos in|ru- ins fall. Lord,|
w: blest; But yet I|still re- mains A|bound- less land to|be pos- sessed. *|
 [Ec]>[EB] [EA]2 ||"^Refrain" [EA]2 | [EG]>[EA] [EB]2 [Ed]2 | [EG]>[EB] [EA]2 [Ac]2 | %20
w: ||||
w: lead me on|to|fields un- trod, The|mount- ain heights that|
w: ||||
 [GB]>[GB] [A=d]2 [Ad]2 | [Ac]>[AB] [Ge]2 [Gd]2 | [Ec]>[DB] [CA]2 [EA]2 | [Ed]>[Ec] [EB]2 [EB]2 | %24
w: ||||
w: tower a- bove; A|vi- sion give me|of the land, The|Ca- naan land of|
w: ||||
 [Ee]>[Ee] [_Ge]3 [Fd] | [Ec]>[EB] [EA]2 |] %26
w: ||
w: per- fect love. *||
w: ||
V:2
 E2 | x6 | x6 | x6 | x6 | x6 | x6 | x6 | x4 A2 | x6 | x6 | x6 | x2 E2 E2 | x6 | x6 | x6 | x4 || %17
w: good-||||||||er-||||giv- en|||||
w: tho’||||||||mor||||or- ders|||||
w: on||||||||I||||know there|||||
 x2 | x6 | x6 | x6 | x6 | x6 | x6 | x6 | x4 |] %26
w: |||||||||
w: |||||||||
w: |||||||||
V:3
 E,2 | [A,,C]>[A,,C] [A,,C]2 [A,,A,]2 | [D,A,]>[D,A,] [D,A,]2 [D,B,]2 | %3
 [E,B,]>[E,A,] [E,G,]2 [F,A,]2 | [B,,B,]>[B,,A,] [E,G,]2 [E,G,]2 | %5
 [A,,A,]>[A,,C] [A,,C]2 [A,,A,]2 | [D,F,]>[D,B,] [D,B,]2 [D,B,]2 | [E,B,]>[E,C] [E,D]2 [E,B,]2 | %8
 [E,E]>[E,D] [A,,C]2 A,2 | [D,A,]>[D,A,] [D,A,]2 [D,A,]2 | [A,,A,]>[A,,A,] [A,,A,]2 [A,C]2 | %11
 [E,B,]>[E,E] [E,E]2 [E,B,]2 | [B,,B,]>[B,,A,] [E,G,]2 [E,G,]2 | [A,,A,]>[A,,E,] [A,,E,]2 [C,A,]2 | %14
 [B,,G,]>[A,,A,] [E,G,]2 [D,G,]2 | [C,A,]>[B,,G,] [A,,A,]3 [D,A,] | [E,A,]>[E,D] [A,,C]2 || %17
 [A,,C]2 | [E,B,]>[E,C] [E,D]2 [E,B,]2 | [E,B,]>[E,D] [A,,C]2 [A,E]2 | [B,E]>[B,E] [F,F]2 [F,F]2 | %21
 [B,E]>[B,=D] [E,B,]2 [E,B,]2 | [A,,A,]>[A,,E,] [A,,E,]2 [C,A,]2 | %23
 [B,,G,]>[A,,A,] [E,G,]2 [D,G,]2 | [C,A,]>[B,,G,] [A,,A,]3 [D,A,] | [E,A,]>[E,D] [A,,C]2 |] %26
V:4
 E,2 | x6 | x6 | x6 | x6 | x6 | x6 | x6 | x4 A,2 | x6 | x6 | x6 | x6 | x6 | x6 | x6 | x4 || x2 | %18
 x6 | x6 | x6 | x6 | x6 | x6 | x6 | x4 |] %26

